X: 5
T: Farewell To Uist
R: waltz
M: 3/4
L: 1/8
K: Emin
eed|:B3 A AG|AGE2GA|A3 cB2|e3 e de|
g3 a ag|edB2BA|G3 A AG|E3 e ed|
B3 d AG|AGE2GA|A3 c B2|e3 e de|
g3 a ag|edB2BD|G3 B de|A4 a/a/z|
a3 b{a}b2|age2ec|d3 eg2|g3 a ag|
de ga ed|AB de AG|EG2B AG |E3 e ed|
B3 A AG|AGE2GA|A3 dB2|e3 e de|
g3 a ag|edB2BA|G3 B A<B|[1A4ed:|[2 A6||


Tune 8085	Setting 19299

